docs/img/icons/rocket.svg

<svg width="70" height="70" viewBox="0 0 70 70" fill="none" xmlns="http://www.w3.org/2000/svg">
<g clip-path="url(#clip0_45:360)">
<path d="M36.7311 33.2706C36.1965 32.736 35.3311 32.736 34.7965 33.2706C34.2633 33.8038 34.2633 34.6692 34.7965 35.2038C35.3311 35.737 36.1965 35.737 36.7311 35.2038C37.2643 34.6692 37.2643 33.8038 36.7311 33.2706Z" fill="white"/>
<path d="M54.1314 15.8687C51.4599 13.1973 47.1352 13.1972 44.4636 15.8687C41.7991 18.5332 41.7989 22.8699 44.464 25.5366C47.1295 28.2004 51.4662 28.2015 54.1314 25.5363C56.8026 22.8651 56.8031 18.5403 54.1314 15.8687ZM52.1979 23.6027C50.5992 25.2015 47.9969 25.2015 46.3975 23.603C44.7985 22.0031 44.7984 19.4008 46.3972 17.8021C47.9999 16.1994 50.5949 16.1991 52.1979 17.8021C53.8006 19.4048 53.8009 21.9998 52.1979 23.6027Z" fill="white"/>
<path d="M69.5993 0.40034C69.3308 0.131961 68.9644 -0.0135071 68.5835 0.000848358C68.2743 0.0119226 60.9141 0.307781 52.1648 3.40022C45.1539 5.87564 39.3101 9.4198 34.7958 13.9342C33.7842 14.9458 32.7999 16.0185 31.858 17.1329C27.3944 14.5054 23.8176 15.3293 21.5564 16.5394C16.35 19.3257 13.1274 26.8912 13.1274 32.3025C13.1279 32.8554 13.461 33.354 13.9718 33.5655C14.1409 33.6356 14.3187 33.6697 14.4948 33.6697C14.8506 33.6697 15.2002 33.5306 15.4618 33.2692C18.2075 30.5235 21.5941 30.6952 22.7005 30.8407L23.1793 31.3195C22.237 33.5617 21.4779 35.7913 20.9212 37.9598C20.7202 38.7445 20.7881 39.575 21.0868 40.3346C19.7705 40.9412 18.5005 41.8319 17.3947 42.9377C13.8754 46.4571 13.1608 55.034 13.1321 55.3974C13.1006 55.7962 13.2453 56.1889 13.5282 56.4717C13.7856 56.729 14.1338 56.8722 14.4948 56.8722C14.5306 56.8722 14.5665 56.8708 14.6025 56.8679C14.9659 56.8394 23.5431 56.1247 27.0623 52.6055C28.1677 51.5001 29.0583 50.2303 29.6649 48.9142C30.4691 49.2304 31.2968 49.2694 32.0411 49.0787C34.2086 48.5221 36.4379 47.7633 38.6804 46.8209L39.1592 47.2997C39.3045 48.4062 39.4762 51.7928 36.7307 54.5383C36.3398 54.9293 36.2227 55.5173 36.4344 56.0281C36.6459 56.539 37.1444 56.872 37.6974 56.872C43.1087 56.872 50.674 53.6495 53.4604 48.4431C54.6704 46.1822 55.4943 42.6053 52.8669 38.1416C53.9807 37.2002 55.0535 36.2158 56.0655 35.2038C60.58 30.6894 64.124 24.8456 66.5994 17.8352C69.692 9.08552 69.9877 1.72514 69.9988 1.41616C70.0124 1.03676 69.8677 0.668855 69.5993 0.40034ZM16.1842 29.3618C17.0335 25.2517 19.5003 20.7415 22.8472 18.9502C25.0837 17.7533 27.5284 17.8706 30.1277 19.2935C27.9133 22.2058 25.9881 25.3435 24.3835 28.6569C24.3631 28.6443 24.117 28.3349 23.6598 28.2318C23.4718 28.1893 19.8544 27.4113 16.1842 29.3618ZM25.1289 50.6719C23.249 52.5517 18.8391 53.5432 16.0518 53.948C16.4568 51.1606 17.4484 46.7509 19.3282 44.8712C20.3809 43.8184 21.6015 43.0203 22.8284 42.5707L27.4293 47.1716C26.9798 48.3985 26.1817 49.6191 25.1289 50.6719ZM31.3619 46.4299C30.9662 46.5312 30.5079 46.3825 30.1672 46.0423C28.3985 44.2736 27.7066 43.5816 27.4894 43.3647C27.0913 42.9665 26.115 41.9902 23.9586 39.8336C23.6176 39.492 23.4688 39.0338 23.5699 38.6389C24.0078 36.9334 24.5805 35.1837 25.2769 33.4172L36.5829 44.7231C34.8161 45.4197 33.0666 45.9923 31.3619 46.4299ZM51.0499 47.1529C49.2586 50.4996 44.7485 52.9665 40.6385 53.8157C41.9489 51.3497 42.2378 48.2105 41.759 46.307C41.6479 45.8648 41.3594 45.6425 41.3433 45.6164C44.6564 44.0118 47.7939 42.0866 50.7066 39.8722C52.1294 42.4718 52.2466 44.9167 51.0499 47.1529ZM54.1323 33.2703C52.9004 34.5022 51.5738 35.6923 50.1894 36.8075C46.8614 39.4872 43.1984 41.757 39.2904 43.5639L26.4362 30.7099C28.243 26.8016 30.5128 23.1387 33.1922 19.8111C34.3084 18.4257 35.4984 17.099 36.7298 15.8677C40.7801 11.8173 46.0074 8.59374 52.2708 6.27336L63.7267 17.7293C61.4066 23.9925 58.183 29.2198 54.1323 33.2703ZM64.7104 14.8457L55.1543 5.28967C60.3607 3.67256 64.89 3.06703 67.1508 2.84938C66.933 5.11056 66.3273 9.63991 64.7104 14.8457Z" fill="white"/>
<path d="M32.8632 56.4716C32.329 55.9377 31.4633 55.938 30.9296 56.4718L27.0632 60.3396C26.5294 60.8736 26.5296 61.7393 27.0635 62.2731C27.5976 62.8068 28.4633 62.8068 28.9971 62.2728L32.8635 58.405C33.3972 57.871 33.3971 57.0053 32.8632 56.4716Z" fill="white"/>
<path d="M13.5289 37.137C12.9951 36.603 12.1296 36.603 11.5954 37.1367L7.72765 41.0031C7.19362 41.5369 7.19349 42.4026 7.72724 42.9366C8.26085 43.4703 9.12641 43.4709 9.66071 42.9369L13.5285 39.0705C14.0625 38.5367 14.0626 37.671 13.5289 37.137Z" fill="white"/>
<path d="M23.196 58.4063C22.6624 57.8724 21.7966 57.8724 21.2625 58.4062L12.0012 67.6661C11.4672 68.2 11.4672 69.0657 12.0011 69.5996C12.5347 70.1334 13.4006 70.1337 13.9346 69.5997L23.1959 60.3398C23.7299 59.8059 23.7299 58.9402 23.196 58.4063Z" fill="white"/>
<path d="M12.2585 58.4063C11.7248 57.8724 10.8589 57.8724 10.3251 58.4062L1.06374 67.6661C0.52972 68.2 0.52972 69.0657 1.06361 69.5996C1.59722 70.1334 2.46306 70.1337 2.99708 69.5997L12.2584 60.3398C12.7924 59.8059 12.7924 58.9402 12.2585 58.4063Z" fill="white"/>
<path d="M11.5941 46.8039C11.0603 46.2701 10.1945 46.2701 9.66058 46.804L0.400641 56.0653C-0.133244 56.5993 -0.133244 57.4649 0.400778 57.9989C0.934664 58.5328 1.80037 58.5328 2.33425 57.9988L11.5942 48.7375C12.1281 48.2034 12.1281 47.3379 11.5941 46.8039Z" fill="white"/>
<path d="M42.5308 27.4694C41.9967 26.9355 41.1313 26.9355 40.5972 27.4694L38.664 29.4026C38.1301 29.9365 38.1301 30.8022 38.664 31.3362C39.198 31.8701 40.0635 31.8701 40.5976 31.3362L42.5308 29.403C43.0646 28.8691 43.0646 28.0034 42.5308 27.4694Z" fill="white"/>
</g>
<defs>
<clipPath id="clip0_45:360">
<rect width="70" height="70" fill="white"/>
</clipPath>
</defs>
</svg>

<svg width="70" height="70" fill="none" xmlns="http://www.w3.org/2000/svg"><g clip-path="url(#clip0_45:360)" fill="#fff"><path d="M36.731 33.27a1.367 1.367 0 10-1.935 1.933 1.367 1.367 0 001.935-1.932zm17.4-17.401a6.833 6.833 0 00-9.667 0c-2.665 2.664-2.665 7 0 9.668 2.666 2.663 7.002 2.665 9.667 0a6.833 6.833 0 000-9.668zm-1.933 7.734a4.107 4.107 0 01-5.8 0 4.107 4.107 0 010-5.8 4.1 4.1 0 015.8 0 4.1 4.1 0 010 5.8z"/><path d="M69.6.4a1.362 1.362 0 00-1.016-.4c-.31.012-7.67.308-16.42 3.4-7.01 2.476-12.854 6.02-17.368 10.534a52.039 52.039 0 00-2.938 3.199c-4.464-2.628-8.04-1.804-10.302-.594-5.206 2.787-8.429 10.352-8.429 15.764a1.368 1.368 0 002.335.966c2.745-2.745 6.132-2.574 7.239-2.428l.478.479a48.082 48.082 0 00-2.258 6.64 3.87 3.87 0 00.166 2.375c-1.317.606-2.587 1.497-3.692 2.603-3.52 3.52-4.234 12.096-4.263 12.46a1.367 1.367 0 001.47 1.47c.364-.029 8.941-.743 12.46-4.263a12.948 12.948 0 002.603-3.69 3.861 3.861 0 002.376.164 48.1 48.1 0 006.64-2.258l.478.479c.145 1.106.317 4.493-2.428 7.238a1.367 1.367 0 00.966 2.334c5.412 0 12.977-3.222 15.763-8.429 1.21-2.26 2.034-5.838-.593-10.301a52.043 52.043 0 003.199-2.938c4.514-4.515 8.058-10.358 10.533-17.369 3.093-8.75 3.389-16.11 3.4-16.419a1.368 1.368 0 00-.4-1.016zM16.183 29.362c.85-4.11 3.316-8.62 6.663-10.412 2.237-1.197 4.681-1.08 7.28.344a55.273 55.273 0 00-5.743 9.363c-.02-.013-.267-.322-.724-.425-.188-.043-3.806-.82-7.476 1.13zm8.945 21.31c-1.88 1.88-6.29 2.871-9.077 3.276.405-2.787 1.396-7.197 3.276-9.077 1.053-1.053 2.274-1.85 3.5-2.3l4.601 4.6c-.45 1.227-1.247 2.448-2.3 3.5zm6.233-4.242c-.396.101-.854-.047-1.195-.388l-2.678-2.677-3.53-3.531c-.341-.342-.49-.8-.39-1.195a44.393 44.393 0 011.708-5.222l11.306 11.306a44.355 44.355 0 01-5.221 1.707zm19.688.723c-1.791 3.347-6.301 5.814-10.411 6.663 1.31-2.466 1.599-5.605 1.12-7.509-.111-.442-.4-.665-.416-.69a55.3 55.3 0 009.364-5.745c1.422 2.6 1.54 5.045.343 7.28zm3.082-13.883a49.597 49.597 0 01-3.943 3.537 52.527 52.527 0 01-10.899 6.757L26.436 30.71a52.514 52.514 0 016.756-10.899 49.622 49.622 0 013.538-3.943c4.05-4.05 9.277-7.274 15.54-9.595L63.728 17.73c-2.32 6.264-5.544 11.49-9.595 15.541zM64.71 14.846L55.154 5.29c5.207-1.617 9.736-2.223 11.997-2.44-.218 2.26-.824 6.79-2.44 11.996z"/><path d="M32.863 56.472a1.367 1.367 0 00-1.933 0l-3.867 3.868a1.367 1.367 0 001.934 1.933l3.867-3.868c.533-.534.533-1.4 0-1.933zM13.529 37.137a1.367 1.367 0 00-1.934 0l-3.867 3.866a1.367 1.367 0 001.933 1.934l3.867-3.866c.534-.534.535-1.4 0-1.934zm9.667 21.269a1.367 1.367 0 00-1.934 0l-9.26 9.26a1.367 1.367 0 101.933 1.934l9.26-9.26c.535-.534.535-1.4.001-1.934zm-10.938 0a1.367 1.367 0 00-1.933 0l-9.261 9.26A1.367 1.367 0 102.997 69.6l9.261-9.26c.534-.534.534-1.4 0-1.934zm-.664-11.602a1.367 1.367 0 00-1.933 0L.4 56.065A1.367 1.367 0 002.334 58l9.26-9.262c.534-.534.534-1.4 0-1.933zM42.53 27.47a1.367 1.367 0 00-1.933 0l-1.933 1.933a1.367 1.367 0 001.934 1.933l1.933-1.933c.534-.534.534-1.4 0-1.934z"/></g><defs><clipPath id="clip0_45:360"><path fill="#fff" d="M0 0h70v70H0z"/></clipPath></defs></svg>
